images/whatsapp-icon.svg

<svg width="60" height="60" viewBox="0 0 60 60" fill="none" xmlns="http://www.w3.org/2000/svg">
<g opacity="0.7">
<path d="M0 60L5.16 44.521C2.54172 40.1172 1.03448 34.9779 1.03448 29.4828C1.03448 13.2 14.2345 0 30.5172 0C46.8 0 60 13.2 60 29.4828C60 45.7655 46.8 58.9655 30.5172 58.9655C25.5631 58.9655 20.8976 57.7376 16.8 55.5797L0 60Z" fill="#F2F5FE"/>
<path d="M49.3272 39.2949C47.9658 36.7222 42.9455 33.7801 42.9455 33.7801C41.8096 33.1325 40.439 33.0601 39.7914 34.2146C39.7914 34.2146 38.16 36.1708 37.7452 36.4522C35.85 37.736 34.0945 37.6863 32.3224 35.9142L28.2041 31.796L24.0859 27.6777C22.3138 25.9056 22.2641 24.1501 23.5479 22.2549C23.8293 21.8401 25.7855 20.2087 25.7855 20.2087C26.94 19.5601 26.8676 18.1904 26.22 17.0546C26.22 17.0546 23.2779 12.0342 20.7052 10.6729C19.6107 10.0935 18.2669 10.2963 17.3917 11.1715L15.5731 12.9901C9.80379 18.7594 12.6445 25.2725 18.4138 31.0418L23.6865 36.3146L28.9593 41.5873C34.7286 47.3566 41.2417 50.1973 47.011 44.428L48.8296 42.6094C49.7048 41.7322 49.9065 40.3884 49.3272 39.2949Z" fill="#363739"/>
</g>
</svg>

<svg xmlns="http://www.w3.org/2000/svg" width="60" height="60" fill="none" opacity=".7" xmlns:v="https://vecta.io/nano"><path d="M0 60l5.16-15.479c-2.618-4.404-4.126-9.543-4.126-15.038C1.034 13.2 14.235 0 30.517 0S60 13.2 60 29.483 46.8 58.966 30.517 58.966A29.35 29.35 0 0 1 16.8 55.58L0 60z" fill="#f2f5fe"/><path d="M49.327 39.295c-1.361-2.573-6.382-5.515-6.382-5.515-1.136-.648-2.507-.72-3.154.434l-2.046 2.238c-1.895 1.284-3.651 1.234-5.423-.538l-4.118-4.118-4.118-4.118c-1.772-1.772-1.822-3.528-.538-5.423.281-.415 2.238-2.046 2.238-2.046 1.155-.649 1.082-2.018.434-3.154 0 0-2.942-5.02-5.515-6.382a2.82 2.82 0 0 0-3.314.499l-1.819 1.819c-5.769 5.769-2.929 12.282 2.841 18.052l5.273 5.273 5.273 5.273c5.769 5.769 12.282 8.61 18.052 2.841l1.819-1.819c.875-.877 1.077-2.221.498-3.315z" fill="#363739"/></svg>
